source/images/icon/code.svg

<svg fill="#111827" height="24" viewBox="0 0 40 24" width="40" xmlns="http://www.w3.org/2000/svg"><path d="m14.8 21.2-9.2-9.2 9.2-9.2-2.8-2.8-12 12 12 12zm10.4 0 9.2-9.2-9.2-9.2 2.8-2.8 12 12-12 12z"/></svg>

<svg width="40" height="24" viewBox="0 0 40 24" fill="#111827" xmlns="http://www.w3.org/2000/svg">
<path d="M14.8 21.2L5.6 12L14.8 2.8L12 0L0 12L12 24L14.8 21.2ZM25.2 21.2L34.4 12L25.2 2.8L28 0L40 12L28 24L25.2 21.2Z"/>
</svg>
